packages/components/bolt-icons/src/svgs/product/services/product.svg

<svg id="a09d476d-b8a8-4697-adb8-468825d43ea2" data-name="Layer 1" xmlns="http://www.w3.org/2000/svg" viewBox="0 0 32 32"><title>product</title><path id="a769942e-f1e7-4cba-8f00-88cf5265a492" data-name="Page-1" d="M15,23.5h2v-10H15ZM17.2,9.7a1.1,1.1,0,1,1-1.9-.8,1.23,1.23,0,0,1,.8-.4.91.91,0,0,1,.8.4,1.14,1.14,0,0,1,.3.8ZM30,16a13.51,13.51,0,0,0-4.1-9.9A13.51,13.51,0,0,0,16,2,13.51,13.51,0,0,0,6.1,6.1,13.51,13.51,0,0,0,2,16a13.51,13.51,0,0,0,4.1,9.9A13.51,13.51,0,0,0,16,30a13.51,13.51,0,0,0,9.9-4.1A13.51,13.51,0,0,0,30,16Zm2,0a15.48,15.48,0,0,1-4.7,11.3A15.48,15.48,0,0,1,16,32,15.48,15.48,0,0,1,4.7,27.3,15.48,15.48,0,0,1,0,16,15.48,15.48,0,0,1,4.7,4.7,15.48,15.48,0,0,1,16,0,15.48,15.48,0,0,1,27.3,4.7,15.48,15.48,0,0,1,32,16Z" fill="#1f2555" fill-rule="evenodd"/></svg>

<?xml version="1.0" encoding="utf-8"?>
<!-- Generator: Adobe Illustrator 24.0.3, SVG Export Plug-In . SVG Version: 6.00 Build 0)  -->
<svg version="1.1" id="a09d476d-b8a8-4697-adb8-468825d43ea2"
	 xmlns="http://www.w3.org/2000/svg" xmlns:xlink="http://www.w3.org/1999/xlink" x="0px" y="0px" viewBox="0 0 32 32"
	 enable-background="new 0 0 32 32" xml:space="preserve">
<path id="a769942e-f1e7-4cba-8f00-88cf5265a492" fill-rule="evenodd" clip-rule="evenodd" d="M15,23.5h2v-10h-2V23.5z M17.2,9.7
	c0,0.6-0.5,1.1-1.1,1.1c-0.6,0-1.1-0.5-1.1-1.1c0-0.3,0.1-0.5,0.3-0.7c0.2-0.2,0.5-0.4,0.8-0.4c0.3,0,0.6,0.1,0.8,0.4
	C17.1,9.1,17.2,9.4,17.2,9.7z M30,16c0.1-3.7-1.4-7.3-4.1-9.9C23.3,3.4,19.7,1.9,16,2c-3.7-0.1-7.3,1.4-9.9,4.1
	C3.4,8.7,1.9,12.3,2,16c-0.1,3.7,1.4,7.3,4.1,9.9c2.6,2.7,6.2,4.2,9.9,4.1c3.7,0.1,7.3-1.4,9.9-4.1C28.6,23.3,30.1,19.7,30,16z
	 M32,16c0.1,4.3-1.6,8.3-4.7,11.3c-3,3.1-7,4.8-11.3,4.7c-4.3,0.1-8.3-1.6-11.3-4.7c-3.1-3-4.8-7-4.7-11.3
	c-0.1-4.3,1.6-8.3,4.7-11.3c3-3.1,7-4.8,11.3-4.7c4.3-0.1,8.3,1.6,11.3,4.7C30.4,7.7,32.1,11.7,32,16z"/>
</svg>
